assets/capabilities/alarm_occupancy.svg

<svg height="960" viewBox="0 0 960 960" width="960" xmlns="http://www.w3.org/2000/svg"><g fill="#000" fill-rule="evenodd"><path d="m570.5 635c62.132034 0 112.5 50.367966 112.5 112.5v55.5c0 31.480231-25.519769 57-57 57h-292c-31.480231 0-57-25.519769-57-57v-55.5c0-62.132034 50.367966-112.5 112.5-112.5zm-384-77 157.026701.001494c8.693777 17.673003 20.71988 33.410612 35.258818 46.39247-73.506379 5.425616-131.613215 66.223357-132.768001 140.840717l-.017518 2.265319v35.5h-115c-31.4802307 0-57-25.519769-57-57v-55.5c0-62.132034 50.367966-112.5 112.5-112.5zm587 0c62.132034 0 112.5 50.367966 112.5 112.5v55.5c0 31.480231-25.519769 57-57 57h-115v-35.5l-.017518-2.265319c-1.154786-74.617359-59.261608-135.415031-132.766528-140.833669 14.538703-12.98555 26.564736-28.72549 35.258381-46.4001zm-293.5-188c66.826455 0 121 54.173545 121 121s-54.173545 121-121 121-121-54.173545-121-121 54.173545-121 121-121zm-203-77c50.917423 0 94.48926 31.450187 112.34937 75.984419-37.233462 27.702086-61.34937 72.042548-61.34937 122.015581 0 10.696039 1.104786 21.134041 3.20649 31.206025-16.305047 8.186533-34.717706 12.793975-54.20649 12.793975-66.826455 0-121-54.173545-121-121s54.173545-121 121-121zm406 0c66.826455 0 121 54.173545 121 121s-54.173545 121-121 121c-19.488784 0-37.901443-4.607442-54.208128-12.79248 2.103342-10.073479 3.208128-20.511481 3.208128-31.20752 0-49.973033-24.115908-94.313495-61.344767-122.018426 17.855507-44.531387 61.427344-75.981574 112.344767-75.981574z"/><g fill-rule="nonzero"><path d="m433.351234 65.6369832c35.606422 35.6398348 58.148766 84.2064068 58.148766 137.3644978 0 53.16342-22.54288 101.731147-58.147587 137.363318-7.807474 7.813496-7.802592 20.476795.010905 28.284269 7.813496 7.807474 20.476795 7.802592 28.284269-.010904 42.720229-42.753182 69.852413-101.20838 69.852413-165.636683 0-64.42252-27.131011-122.8751915-69.851234-165.6355015-7.806822-7.8141479-20.47012-7.8200865-28.284268-.0132644s-7.820086 20.4701203-.013264 28.2842681z" transform="matrix(0 1 -1 0 682.501481 -276.498519)"/><path d="m477.725401 256.195201c25.467088-35.332526 39.77534-75.42798 39.77534-118.19446 0-42.7664806-14.308252-82.8619348-39.77534-118.1944611-6.458673-8.9606322-18.958489-10.98887141-27.919121-4.5301991-8.960632 6.4586724-10.988871 18.9584885-4.530199 27.9191207 20.781575 28.831939 32.22466 60.8984485 32.22466 94.8055395 0 33.90709-11.443085 65.9736-32.22466 94.805539-6.458672 8.960632-4.430433 21.460448 4.530199 27.919121 8.960632 6.458672 21.460448 4.430433 27.919121-4.5302z" transform="matrix(0 1 -1 0 617.500741 -341.499259)"/></g></g></svg>

<?xml version="1.0" encoding="UTF-8"?>
<svg width="960px" height="960px" viewBox="0 0 960 960" version="1.1" xmlns="http://www.w3.org/2000/svg" xmlns:xlink="http://www.w3.org/1999/xlink">
    <title>custom-capabilities/ocupancy</title>
    <g id="custom-capabilities/ocupancy" stroke="none" stroke-width="1" fill="none" fill-rule="evenodd">
        <path d="M570.5,635 C632.632034,635 683,685.367966 683,747.5 L683,803 C683,834.480231 657.480231,860 626,860 L334,860 C302.519769,860 277,834.480231 277,803 L277,747.5 C277,685.367966 327.367966,635 389.5,635 L570.5,635 Z M186.5,558 L343.526701,558.001494 C352.220478,575.674497 364.246581,591.412106 378.785519,604.393964 C305.27914,609.81958 247.172304,670.617321 246.017518,745.234681 L246,747.5 L246,783 L131,783 C99.5197693,783 74,757.480231 74,726 L74,670.5 C74,608.367966 124.367966,558 186.5,558 Z M773.5,558 C835.632034,558 886,608.367966 886,670.5 L886,726 C886,757.480231 860.480231,783 829,783 L714,783 L714,747.5 L713.982482,745.234681 C712.827696,670.617322 654.720874,609.81965 581.215954,604.401012 C595.754657,591.415462 607.78069,575.675522 616.474335,558.000912 L773.5,558 Z M480,370 C546.826455,370 601,424.173545 601,491 C601,557.826455 546.826455,612 480,612 C413.173545,612 359,557.826455 359,491 C359,424.173545 413.173545,370 480,370 Z M277,293 C327.917423,293 371.48926,324.450187 389.34937,368.984419 C352.115908,396.686505 328,441.026967 328,491 C328,501.696039 329.104786,512.134041 331.20649,522.206025 C314.901443,530.392558 296.488784,535 277,535 C210.173545,535 156,480.826455 156,414 C156,347.173545 210.173545,293 277,293 Z M683,293 C749.826455,293 804,347.173545 804,414 C804,480.826455 749.826455,535 683,535 C663.511216,535 645.098557,530.392558 628.791872,522.20752 C630.895214,512.134041 632,501.696039 632,491 C632,441.026967 607.884092,396.686505 570.655233,368.981574 C588.51074,324.450187 632.082577,293 683,293 Z" id="Combined-Shape" fill="#000000"></path>
        <path d="M433.351234,65.6369832 C468.957656,101.276818 491.5,149.84339 491.5,203.001481 C491.5,256.164901 468.95712,304.732628 433.352413,340.364799 C425.544939,348.178295 425.549821,360.841594 433.363318,368.649068 C441.176814,376.456542 453.840113,376.45166 461.647587,368.638164 C504.367816,325.884982 531.5,267.429784 531.5,203.001481 C531.5,138.578961 504.368989,80.1262895 461.648766,37.3659795 C453.841944,29.5518316 441.178646,29.545893 433.364498,37.3527151 C425.55035,45.1595372 425.544412,57.8228354 433.351234,65.6369832 Z" id="Stroke-58" fill="#000000" fill-rule="nonzero" transform="translate(479.500000, 203.001481) rotate(-270.000000) translate(-479.500000, -203.001481) "></path>
        <path d="M477.725401,256.195201 C503.192489,220.862675 517.500741,180.767221 517.500741,138.000741 C517.500741,95.2342604 503.192489,55.1388062 477.725401,19.8062799 C471.266728,10.8456477 458.766912,8.81740849 449.80628,15.2760808 C440.845648,21.7347532 438.817409,34.2345693 445.276081,43.1952015 C466.057656,72.0271405 477.500741,104.09365 477.500741,138.000741 C477.500741,171.907831 466.057656,203.974341 445.276081,232.80628 C438.817409,241.766912 440.845648,254.266728 449.80628,260.725401 C458.766912,267.184073 471.266728,265.155834 477.725401,256.195201 Z" id="Stroke-60" fill="#000000" fill-rule="nonzero" transform="translate(479.500000, 138.000741) rotate(-270.000000) translate(-479.500000, -138.000741) "></path>
    </g>
</svg>
